world_stage/static/flags/rect/isl.svg

<svg height="2222.2268" viewBox="0 0 3333.3333 2222.2268" width="3333.3333" xmlns="http://www.w3.org/2000/svg"><g transform="matrix(1.3333333 0 0 -1.3333333 0 2222.2267)"><path d="m1100 0h1400v630.333h-1400z" fill="#003897"/><path d="m0 0h700v630.333h-700z" fill="#003897"/><path d="m1100 1030.333h1400v636.333h-1400z" fill="#003897"/><path d="m0 1030.333h700v636.333h-700z" fill="#003897"/><g fill="#fff"><path d="m700 1030.333h100v636.333h-100z"/><path d="m1100 930.333h1400v100h-1400z"/><path d="m0 930.334h700v100h-700z"/><path d="m800 1030.333h-100v-100h100z"/><path d="m1000 1030.333h100v636.333h-100z"/><path d="m1000 630.333h100v100h-100z"/><path d="m1000 930.333h100v100h-100z"/><path d="m1000 0h100v630.333h-100z"/><path d="m1100 630.333h1400v100h-1400z"/><path d="m700 630.333h100v100h-100z"/><path d="m700 0h100v630.333h-100z"/><path d="m0 630.333h700v100h-700z"/></g><g fill="#d72828"><path d="m1000 1030.333h-200v-100h200z"/><path d="m800 930.333h-100v-200h100z"/><path d="m800 730.333h200v200h-200z"/><path d="m800 0h200v630.333h-200z"/><path d="m0 730.333h700v200.001h-700z"/><path d="m1100 730.333h1400v200h-1400z"/><path d="m800 630.333h200v100h-200z"/><path d="m800 1030.333h200v636.333h-200z"/><path d="m1000 730.333h100v200h-100z"/></g></g></svg>

<?xml version="1.0" encoding="UTF-8" standalone="no"?>
<!-- Created with Inkscape (http://www.inkscape.org/) -->

<svg
   version="1.1"
   id="svg1"
   width="3333.3333"
   height="2222.2268"
   viewBox="0 0 3333.3333 2222.2268"
   sodipodi:docname="is.ai"
   xmlns:inkscape="http://www.inkscape.org/namespaces/inkscape"
   xmlns:sodipodi="http://sodipodi.sourceforge.net/DTD/sodipodi-0.dtd"
   xmlns="http://www.w3.org/2000/svg"
   xmlns:svg="http://www.w3.org/2000/svg">
  <defs
     id="defs1" />
  <sodipodi:namedview
     id="namedview1"
     pagecolor="#ffffff"
     bordercolor="#000000"
     borderopacity="0.25"
     inkscape:showpageshadow="2"
     inkscape:pageopacity="0.0"
     inkscape:pagecheckerboard="0"
     inkscape:deskcolor="#d1d1d1">
    <inkscape:page
       x="0"
       y="0"
       inkscape:label="1"
       id="page1"
       width="3333.3333"
       height="2222.2268"
       margin="0"
       bleed="0" />
  </sodipodi:namedview>
  <g
     id="layer-MC0"
     inkscape:groupmode="layer"
     inkscape:label="Layer 1">
    <path
       id="path1"
       d="M 1100,0 H 2500 V 630.333 H 1100 Z"
       style="fill:#003897;fill-opacity:1;fill-rule:nonzero;stroke:none"
       transform="matrix(1.3333333,0,0,-1.3333333,0,2222.2267)" />
    <path
       id="path2"
       d="M 0,0 H 700 V 630.333 H 0 Z"
       style="fill:#003897;fill-opacity:1;fill-rule:nonzero;stroke:none"
       transform="matrix(1.3333333,0,0,-1.3333333,0,2222.2267)" />
    <path
       id="path3"
       d="m 1100,1030.333 h 1400 v 636.333 H 1100 Z"
       style="fill:#003897;fill-opacity:1;fill-rule:nonzero;stroke:none"
       transform="matrix(1.3333333,0,0,-1.3333333,0,2222.2267)" />
    <path
       id="path4"
       d="m 0,1030.333 h 700 v 636.333 H 0 Z"
       style="fill:#003897;fill-opacity:1;fill-rule:nonzero;stroke:none"
       transform="matrix(1.3333333,0,0,-1.3333333,0,2222.2267)" />
    <path
       id="path5"
       d="m 700,1030.333 h 100 v 636.333 H 700 Z"
       style="fill:#ffffff;fill-opacity:1;fill-rule:nonzero;stroke:none"
       transform="matrix(1.3333333,0,0,-1.3333333,0,2222.2267)" />
    <path
       id="path6"
       d="m 1100,930.333 h 1400 v 100 H 1100 Z"
       style="fill:#ffffff;fill-opacity:1;fill-rule:nonzero;stroke:none"
       transform="matrix(1.3333333,0,0,-1.3333333,0,2222.2267)" />
    <path
       id="path7"
       d="m 0,930.334 h 700 v 100 H 0 Z"
       style="fill:#ffffff;fill-opacity:1;fill-rule:nonzero;stroke:none"
       transform="matrix(1.3333333,0,0,-1.3333333,0,2222.2267)" />
    <path
       id="path8"
       d="M 800,1030.333 H 700 v -100 h 100 z"
       style="fill:#ffffff;fill-opacity:1;fill-rule:nonzero;stroke:none"
       transform="matrix(1.3333333,0,0,-1.3333333,0,2222.2267)" />
    <path
       id="path9"
       d="m 1000,1030.333 h 100 v 636.333 h -100 z"
       style="fill:#ffffff;fill-opacity:1;fill-rule:nonzero;stroke:none"
       transform="matrix(1.3333333,0,0,-1.3333333,0,2222.2267)" />
    <path
       id="path10"
       d="m 1000,630.333 h 100 v 100 h -100 z"
       style="fill:#ffffff;fill-opacity:1;fill-rule:nonzero;stroke:none"
       transform="matrix(1.3333333,0,0,-1.3333333,0,2222.2267)" />
    <path
       id="path11"
       d="m 1000,930.333 h 100 v 100 h -100 z"
       style="fill:#ffffff;fill-opacity:1;fill-rule:nonzero;stroke:none"
       transform="matrix(1.3333333,0,0,-1.3333333,0,2222.2267)" />
    <path
       id="path12"
       d="m 1000,0 h 100 v 630.333 h -100 z"
       style="fill:#ffffff;fill-opacity:1;fill-rule:nonzero;stroke:none"
       transform="matrix(1.3333333,0,0,-1.3333333,0,2222.2267)" />
    <path
       id="path13"
       d="m 1100,630.333 h 1400 v 100 H 1100 Z"
       style="fill:#ffffff;fill-opacity:1;fill-rule:nonzero;stroke:none"
       transform="matrix(1.3333333,0,0,-1.3333333,0,2222.2267)" />
    <path
       id="path14"
       d="m 700,630.333 h 100 v 100 H 700 Z"
       style="fill:#ffffff;fill-opacity:1;fill-rule:nonzero;stroke:none"
       transform="matrix(1.3333333,0,0,-1.3333333,0,2222.2267)" />
    <path
       id="path15"
       d="M 700,0 H 800 V 630.333 H 700 Z"
       style="fill:#ffffff;fill-opacity:1;fill-rule:nonzero;stroke:none"
       transform="matrix(1.3333333,0,0,-1.3333333,0,2222.2267)" />
    <path
       id="path16"
       d="m 0,630.333 h 700 v 100 H 0 Z"
       style="fill:#ffffff;fill-opacity:1;fill-rule:nonzero;stroke:none"
       transform="matrix(1.3333333,0,0,-1.3333333,0,2222.2267)" />
    <path
       id="path17"
       d="M 1000,1030.333 H 800 v -100 h 200 z"
       style="fill:#d72828;fill-opacity:1;fill-rule:nonzero;stroke:none"
       transform="matrix(1.3333333,0,0,-1.3333333,0,2222.2267)" />
    <path
       id="path18"
       d="M 800,930.333 H 700 v -200 h 100 z"
       style="fill:#d72828;fill-opacity:1;fill-rule:nonzero;stroke:none"
       transform="matrix(1.3333333,0,0,-1.3333333,0,2222.2267)" />
    <path
       id="path19"
       d="m 800,730.333 h 200 v 200 H 800 Z"
       style="fill:#d72828;fill-opacity:1;fill-rule:nonzero;stroke:none"
       transform="matrix(1.3333333,0,0,-1.3333333,0,2222.2267)" />
    <path
       id="path20"
       d="m 800,0 h 200 V 630.333 H 800 Z"
       style="fill:#d72828;fill-opacity:1;fill-rule:nonzero;stroke:none"
       transform="matrix(1.3333333,0,0,-1.3333333,0,2222.2267)" />
    <path
       id="path21"
       d="M 0,730.333 H 700 V 930.334 H 0 Z"
       style="fill:#d72828;fill-opacity:1;fill-rule:nonzero;stroke:none"
       transform="matrix(1.3333333,0,0,-1.3333333,0,2222.2267)" />
    <path
       id="path22"
       d="m 1100,730.333 h 1400 v 200 H 1100 Z"
       style="fill:#d72828;fill-opacity:1;fill-rule:nonzero;stroke:none"
       transform="matrix(1.3333333,0,0,-1.3333333,0,2222.2267)" />
    <path
       id="path23"
       d="m 800,630.333 h 200 v 100 H 800 Z"
       style="fill:#d72828;fill-opacity:1;fill-rule:nonzero;stroke:none"
       transform="matrix(1.3333333,0,0,-1.3333333,0,2222.2267)" />
    <path
       id="path24"
       d="m 800,1030.333 h 200 v 636.333 H 800 Z"
       style="fill:#d72828;fill-opacity:1;fill-rule:nonzero;stroke:none"
       transform="matrix(1.3333333,0,0,-1.3333333,0,2222.2267)" />
    <path
       id="path25"
       d="m 1000,730.333 h 100 v 200 h -100 z"
       style="fill:#d72828;fill-opacity:1;fill-rule:nonzero;stroke:none"
       transform="matrix(1.3333333,0,0,-1.3333333,0,2222.2267)" />
  </g>
</svg>
